X: 15
T: DAPHNE
B: "FIFTY OLD ENGLISH FOLK DANCE AIRS", Edgar H. Hunt ed., Schott & Co. Ltd. pub., London 1939
Z: 2004-2014 John Chambers <jc:trillian.mit.edu>
N: This tune is sometimes used for the dance HIT AND MISSE.
M: 6/8
L: 1/8
K: Dm
D |\
F2G A2d | (c>d)e d2(A/B/) |\
cAF GEC |[1 DFE D2 :|[2 DFE D3 ||
|:\
f2f e2e | (d>e)d (cA2) |\
(c>B)A G2F | (FE2) F3 :|\
|: .c.c.d .c.A.F |
c(d/e/)f gec |\
(A>G)F E2D | ddc dAA |\
(c>B)A GDF |[1 (E>F)E D3 :|[2 (E>F)E D2 |]

%%sep 1 1 500
%%sep 1 1 500
